icons/glyphs/glyph-alien.svg

<?xml version="1.0" encoding="UTF-8" standalone="no"?><svg height="16" viewBox="0 0 4.2333332 4.2333332" width="16" xmlns="http://www.w3.org/2000/svg"><sodipodi:namedview/><metadata><rdf:RDF><cc:Work><dc:format>image/svg+xml</dc:format><dc:type/><dc:title/></cc:Work></rdf:RDF></metadata><path d="m2.1166665-.00000005c-.8690138 0-1.57354726.82841633-1.57354729 1.85001625 0 1.0216 1.21800629 2.383317 1.57354729 2.383317s1.5735475-1.361717 1.5735475-2.383317c0-1.02159992-.7045336-1.85001625-1.5735475-1.85001625zm-.7790738 1.32136635c.265955-.0000537.5052578.2115706.5364013.4738728l.056327.4733562h-.4800737c-.2659551.0000534-.50525766-.2110545-.53640139-.4733562l-.0563273-.4733561zm1.5317928 0 .480074.0005159-.05581.4733561c-.0311443.2623017-.2704469.4734095-.5364018.4733561h-.4800742l.0563273-.4733553c.0312119-.2622941.2699295-.4739265.5358847-.4738728z" fill="#d0d0d0" stroke-width=".965"/></svg>

<?xml version="1.0" encoding="UTF-8" standalone="no"?>
<!-- Created with Inkscape (http://www.inkscape.org/) -->

<svg
   xmlns:dc="http://purl.org/dc/elements/1.1/"
   xmlns:cc="http://creativecommons.org/ns#"
   xmlns:rdf="http://www.w3.org/1999/02/22-rdf-syntax-ns#"
   xmlns:svg="http://www.w3.org/2000/svg"
   xmlns="http://www.w3.org/2000/svg"
   xmlns:sodipodi="http://sodipodi.sourceforge.net/DTD/sodipodi-0.dtd"
   xmlns:inkscape="http://www.inkscape.org/namespaces/inkscape"
   width="16"
   height="16"
   viewBox="0 0 4.2333332 4.2333332"
   version="1.1"
   id="svg8"
   inkscape:version="0.92+devel (4546dc857e, 2017-07-25, custom)"
   sodipodi:docname="glyph-alien.svg">
  <defs
     id="defs2" />
  <sodipodi:namedview
     id="base"
     pagecolor="#002466"
     bordercolor="#ffffff"
     borderopacity="0.38039216"
     inkscape:pageopacity="1"
     inkscape:pageshadow="2"
     inkscape:zoom="30.625757"
     inkscape:cx="8.6639244"
     inkscape:cy="6.0298484"
     inkscape:document-units="px"
     inkscape:current-layer="svg8"
     inkscape:document-rotation="0"
     showgrid="false"
     inkscape:showpageshadow="false"
     borderlayer="true"
     inkscape:window-width="1920"
     inkscape:window-height="1051"
     inkscape:window-x="0"
     inkscape:window-y="0"
     inkscape:window-maximized="1"
     units="px"
     inkscape:snap-bbox="true"
     inkscape:bbox-nodes="true"
     inkscape:snap-intersection-paths="true"
     inkscape:object-paths="true"
     inkscape:snap-smooth-nodes="true" />
  <metadata
     id="metadata5">
    <rdf:RDF>
      <cc:Work
         rdf:about="">
        <dc:format>image/svg+xml</dc:format>
        <dc:type
           rdf:resource="http://purl.org/dc/dcmitype/StillImage" />
        <dc:title></dc:title>
      </cc:Work>
    </rdf:RDF>
  </metadata>
  <path
     style="fill:#d0d0d0;stroke-width:0.96500003"
     d="M 2.1166665,-5.0000001e-8 C 1.2476527,-5.0000001e-8 0.54311924,0.82841628 0.54311921,1.8500162 c 0,1.0216 1.21800629,2.383317 1.57354729,2.383317 0.355541,0 1.5735475,-1.361717 1.5735475,-2.383317 C 3.690214,0.82841628 2.9856804,-5.0000001e-8 2.1166665,-5.0000001e-8 Z M 1.3375927,1.3213663 c 0.265955,-5.37e-5 0.5052578,0.2115706 0.5364013,0.4738728 L 1.930321,2.2685953 H 1.4502473 C 1.1842922,2.2686487 0.94498964,2.0575408 0.91384591,1.7952391 L 0.85751861,1.321883 Z m 1.5317928,0 0.480074,5.159e-4 -0.05581,0.4733561 C 3.2625052,2.05754 3.0232026,2.2686478 2.7572477,2.2685944 H 2.2771735 L 2.3335008,1.7952391 C 2.3647127,1.532945 2.6034303,1.3213126 2.8693855,1.3213663 Z"
     id="path811"
     inkscape:connector-curvature="0"
     sodipodi:nodetypes="sssssccccccccccccsc"
     inkscape:label="#" />
</svg>
